X:1
T:# / 2 anon: tappster, dryngker
%%score [ 1 2 3 ]
L:1/8
Q:1/4=150
M:2/2
K:F
V:1 treble nm="Cantus"
V:2 treble-8 nm="Contratenor"
V:3 treble-8 nm="Tenor"
V:1
 z8 |"^Tappster, Dryngker" z8 | B4 c4 | B2 B2 A2 A2 | G4 F4 |"^Anonymous,""^(15th century)" G4 z4 | %6
w: ||dryng- ker|fyll a- no- ther|ale A-|nonn|
 z4 G4 | A2 A2 B4 | c4 d2 e2- | ef g2 f2 d2 | e2 d4 ^c2 | d4 z4 | B4 A2 A2 | G2 G2 c4 | d4 d4 | %15
w: God|sende us good|sale * *||||A- vale the|stake, a- vale|here is|
 c2 B2 G4 | F4 B4 | A2 c4 d2- | d2 B2 A2 cB | AG G4 ^F2 | G4 z4 | z2 c2 B2 B2 | %22
w: good ale y'|founde *|||||and y to|
[M:3/2] c4 z4 c2 d2 |[M:3/2] e8 e4 | d3 c A2 d2 d2 c2 | d4 c2 d2 e2 f2 | g4 f2 e3 c d2- | %27
w: thee and *|lette the|cuppe * * * goe *|rounde * * * *||
 dc=BA G2 c2 B2 AB | c12 :| %29
w: ||
V:2
 z8 | z8 | d4 c4 | z8 | z4 A4 | G4 f2 f2 | g4 e4 | e2 e2 f4 | g4 f2 g2 | f2 e2 a2 g2 | c2 f2 g4 | %11
w: ||dryng- ker||A-|nonn have I|do God|sende us good|sale * *|||
 a4 z4 | G4 d2 d2 | G2 B2 A2 c2 | G4 g4 | e2 d2 e4 | d4 B4 | f2 e2 g2 d2 | f4 e2 c2- | %19
w: |A- vale the|stake, a- vale *|here is|good ale y'|founde *|||
 c2 d2 e2 c2 | d4 e2 e2 | e2 e2 f2 f2 |[M:3/2] g8 a4 |[M:3/2][K:treble-8] g8 c4 | d6 g6 | %25
w: |* Drynke ~to|me and y to|thee and|lette the|cuppe goe|
 a8 e2 f2 | e2 g2 d2 g4 a2 | g2 f2 e2 c2 f4 | g12 :| %29
w: rounde * *||||
V:3
 z8 | d4 c4 | z8 | g2 g2 f2 f2 | g4 z4 | z4 A2 A2 | G4 c4 | c2 c2 d4 | c2 e2 d2 c2 | d2 e2 f2 g2- | %10
w: |Tapp- ster||fyll a- no- ther|ale|have I|do God|sende us good|sale * * *||
 g2 d2 e4 | d4 z4 | g4 ^f2 f2 | g2 g2 e4 | d4 G4 | A2 B2 c4 | d6 d2 | d2 c2 e2 f2 | d4 c4 | %19
w: ||A- vale the|stake, a- vale|here is|good ale y'|founde *|||
 z2 A2 A4 | G4 c2 c2 | c2 c2 d2 d2 |[M:3/2] c8 c4 |[M:3/2][K:treble-8] c8 g4 | f4 a2 g2 e4 | %25
w: |* Drynke ~to|me and y to|thee and|lette the|cuppe * * goe|
 d2 f4 d2 c2 d2 | c4 d2 e4 d2 | e2 f2 g2 e2 d4 | c12 :| %29
w: rounde * * * *||||

